X: 33761
T: Rattlin', Roarin' Willie
R: slip jig
M: 9/8
K: Dmixolydian
|:B|AFD DED F>AB|cBc E[CFc]E G2 B|AFD DF/E/D F>A^c|d^cd FDF A2 B/c/|
dcB AFD F>AB|cBc E[CFc]E G2 E|D2 d F2 D F>Ad|FD/E/F E[CFc]E D2:|
|:B|AFD dFD A>FD|E[CFc]E G[CFc]E G2 B|AFD dFD F>A^c|d^cd FD/E/F A2 B/c/|
dcB AFD F>AB|cBc E2 F G2 E|D2 d F2 D F>Ad|FDF E^DE =D2:|

